X: 08119
T: ZORA'S WALTZ
C: Bob McQuillen 7 Sept 91
B: Bob's Note Book 8 #119
%R: waltz
Z: 2005/2021 John Chambers <jc:trillian.mit.edu>
M: 3/4
L: 1/8
K: G
B,2 A,2 \
| "G"G,2 B,2 D2 | G2 B2 d2 | e3 d B2 | d2 B2 G2 \
| "G"D2 G2 B2 | d4 e2 | "D7"c6- | c2 A2 F2 |
| "D7"D3 E D2 | D2 A2 c2 | f4 e2 | c2 A2 B2 \
| "D7"c2 e2 g2 | f4 e2 | "G"e2 d2 B2 | "D7"B2 G2 E2 |
| "G"D2 B,2 D2 | G2 B2 d2 | e3 d B2 | d2 B2 G2 \
| "G"D2 G2 B2 | d2 B2 d2 | "C"e6 | c4 d2 |
| "C7"e3 f g2 | g2 f2 e2 | "G"d2 e3 f | "E7"e4 B2 \
| "Am"c2 d2 e2 | "D7"B4 A2 | "G7"d6 | B2 c2 d2 |
| "C7"e3 f g2 | g2 f2 e2 | "G"d2 e2 f2 | "E7"e4 B2 \
| "Am"c2 d2 e2 | "D7"B4 A2 | "G"G6- | G2 ||
|| G2 A2 \
| "C"c2 G2 G2 | B2 G2 G2 | A2 G3 E | G2 A2 G2 \
| "C"E2 C3 A, | G,4 E2 | "Dm"D6- | D2 D2 E2 |
| "Dm"F2 A2 c2 | c2 D2 E2 | "G7"F2 B3 B | B2 G2 A2 \
| "G7"B2 c3 d | c2 B2 A2 | "C"A6 | "G7"G2 A2 B2 |
| "C"c2 G3 G | B2 G3 G | A2 G2 E2 | G2 A2 B2 \
| "C"c2 d2 e2 | "C7"e2 d2 c2 | "F"B6 | A4 B2 |
| "F7"c2 D2 D2 | c2 d2 e2 | "C"c2 G2 E2 | "A7"G2 g2 f2 \
| "D7"e6 | "G7"d2 c2 d2 | "C"c6- | c2 |]
%%begintext align
%% Aug 4, 1991 was the day that new arrival Zora Alexis Blade chose to join her
%% happy parents, Dina and Frank, in their new house on E. Olive St. in Seattle.
%% Actually, she came home the next day, Aug 5, and even kitty was glad to see
%% her! I guess it will be a while before you dance to this tune, Zora, but I
%% hope you like it when you do!
%%endtext

%%newpage

%%sep 1 1 500

